X:1
T:Barley Cakes
T:for the dance Barley Bree
T:4x40 Jig, RSCDS Bk. 13:  play AABAB
C:arr. T. Traub 4-19-02, from Barbara McOwen
R:Jig
B:RSCDS Book 13, pub. in Bremner & Gow, via Barbara McOwen
Z:arr. Terry Traub 4-19-02
M:6/8
%
K:G
L: 1/8
c|: "G" B2 G B/c/dB | "F"A2 =F A/B/cA| "G"B2 G B/c/dB| "G"d3 g3|"G" B2 G B/c/dB | \
   "F"A2 =F A/B/cA| "F"dcB "D7"cBA| "G"G3 G,2 :|
f| "G"gag "D"fgf| "C"e2 d "G"B3| "G"gag "A7"f2 g|"D"a3 d3| \
"C"c2 a "G"B2 g| "A7"ABG "D7"FED| "C"GAB "D7"AGF| "G"G3 G2 |]
